X:100
T:the Green ship
A:Wyresdale, Lancashire
B:A John Winder Book, April 1789
L:1/8
M:C|
O:England
Z:Richard Robinson 
%%TUNEURL: http://www.leeds.ac.uk/music/Info/RRTuneBk/gettune/00000612.html
%%ID:00000612
K:F
A|\
A2d2 efed | A2d2 f4 | A2(AB) c2c2 | BABd c4 |\
A2d2 efed | A2d2 f4 | fagf egfe | f2(d2 d2) ::
(c>B) | \
A2(.F2 .F2)C2 | A2F2 AcBA | B2(.G2 .G2.G2) | B2G2 BdcB |\
A2(.F2 .F2)C2 | A2F2 f4 | fagf egfe | f2(.d2 .d2) :|
% page 11
